X:189
T:Donald MacDonald's Fancy
C:J. MacFarlane
B:James Hunter, ed. "Kerr's Thistle Collection" p. 10
Z:2015 John Chambers <jc:trillian.mit.edu>
N:For the dance "Nottingham Lace"
S:Colin Hume's website,  colinhume.com  - chords can also be printed below the stave.
Q:1/2=120
M:2/2
L:1/8
K:Bb
P:A
|: F | "Bb"B2FE DFBd | "F"ec"Bb"dB "F"cAFA | "Bb"B2FE DFBD | "Cm"EG"F"CF "Bb"DB,B, :|
P:B
f | "Gm"bBAB "F"aBAB | "Eb"gBAB "Bb"fBAB | "Cm"eF=EF "Bb"dFEF | "Cm"cBAG "F"FEDC ||
"Gm"bBAB "F"aBAB | "Eb"gBAB "Bb"fBAB | "Cm"edcB "(F7)"AGFE | "Bb"DB,"F"CA, "Bb"B,3 |]

